apps/web/assets/svg/add.svg

<svg xmlns="http://www.w3.org/2000/svg" width="24" height="24" fill="none" viewBox="0 0 24 24"><path fill="currentColor" d="M20 14h-6v6h-4v-6H4v-4h6V4h4v6h6v4Z"/></svg>

<svg
	width="24"
	height="24"
	viewBox="0 0 24 24"
	fill="none"
	xmlns="http://www.w3.org/2000/svg"
>
	<path d="M20 14H14V20H10V14H4V10H10V4H14V10H20V14Z" fill="currentColor" />
</svg>
